X:1
T: Hampson's Fancy
C:Bruce Shawyer
R:Jig
Q:180
K:D
M:6/8
L:1/16
A2|A2F2A2 d2A2F2|c2B2A2 G2F2E2|D2F2A2 B2c2d2|e2f2d2 c2B2A2|A2F2A2 d2A2F2|c2B2A2 G2F2E2|B2d2B2 A2F2D2|E2D2C2 D4A2|
A2F2A2 d2A2F2|c2B2A2 G2F2E2|D2F2A2 B2c2d2|e2f2d2 c2B2A2|A2F2A2 d2A2F2|c2B2A2 G2F2E2|B2d2B2 A2F2D2|E2D2C2 D4A2|
f2e2d2 d2e2f2|a2g2f2 f2e2d2|e2c2A2 A2c2e2|g2f2e2 e2d2c2|d2c2B2 B2c2B2|B2c2d2 d2e2f2|e2c2A2 A2B2c2|c2d2e2 e2f2g2|
f2e2d2 d2e2f2|a2g2f2 f2e2d2|e2c2A2 A2c2e2|g2f2e2 e2d2c2|d2c2B2 B2c2B2|B2c2d2 A2F2D2|B2d2B2 A2F2D2|E2D2C2 D4||
